X:133
T:Lillibullero
M:6/8
L:1/8
K:G 
|:G2G B2B|ABA c3|BdG c2B|AGF G3:|
|g2f g2d|de=f e2d|def gde|dcB A2d|
|edc Bcd|edc Bcd|egG c2B|AGF G3|
